!!!COM: Palestrina, Giovanni Perluigi da
!!!OPR: Missa Ut re mi fa sol la
!!!OMD: Sanctus
!!!OTL: Hosanna
**kern	**kern	**kern	**kern	**kern	**kern
*Ibass	*Itenor	*Icalto	*Icalto	*Icant	*Icant
!Bassus	!Tenor	!Altus 2	!Altus 1	!Cantus 2	!Cantus 1
*clefF4	*clefGv2	*clefG2	*clefG2	*clefG2	*clefG2
*k[]	*k[]	*k[]	*k[]	*k[]	*k[]
*C:ion	*C:ion	*C:ion	*C:ion	*C:ion	*C:ion
*M4/2	*M4/2	*M4/2	*M4/2	*M4/2	*M4/2
=91	=91	=91	=91	=91	=91
0r	1r	0r	1.g	0r	0r
.	[1c	.	.	.	.
.	.	.	2f	.	.
=92	=92	=92	=92	=92	=92
0r	1c]	1r	1e	0g	0r
.	1B	[1g	1d	.	.
=93	=93	=93	=93	=93	=93
0r	0A	1g]	0c	0a	0r
.	.	1f	.	.	.
=94	=94	=94	=94	=94	=94
0G	1G	1e	1.g	0b	0r
.	1B	[1d	.	.	.
.	.	.	2d	.	.
=95	=95	=95	=95	=95	=95
1F	1A	2d]	1f	0cc	1r
.	.	2c	.	.	.
1E	1G	1c	2g	.	[1gg
.	.	.	4G	.	.
.	.	.	4A	.	.
=96	=96	=96	=96	=96	=96
0D	0d	1B	4B	0dd	1gg]
.	.	.	4c	.	.
.	.	.	4d	.	.
.	.	.	4e	.	.
.	.	1A	2f	.	1ff
.	.	.	2d	.	.
=97	=97	=97	=97	=97	=97
0C	1G	2.c	1g	0ee	2.ee
.	.	4d	.	.	4dd
.	[1g	1e	1G	.	2cc
.	.	.	.	.	2b
=98	=98	=98	=98	=98	=98
0D	1g]	1A	1d	0dd	[0a
.	1f	1r	1A	.	.
=99	=99	=99	=99	=99	=99
0A	2.e	1r	2.c	0cc	0a]
.	4d	.	4d	.	.
.	2c	[1a	1e	.	.
.	2A	.	.	.	.
=100	=100	=100	=100	=100	=100
0E	2B	1a]	0e	0b	1r
.	2.e	.	.	.	.
.	.	1g	.	.	[1ee
.	4d	.	.	.	.
.	2B	.	.	.	.
=101	=101	=101	=101	=101	=101
1A	1c#	1e	0r	0a	1ee]
1D	1d	1f#	.	.	[1dd
=102	=102	=102	=102	=102	=102
1G	1B	1g	1r	0g	1dd]
1C	1c	1e	[1g	.	1cc
=103	=103	=103	=103	=103	=103
0D	1r	0d	1g]	0r	1b
.	1d	.	1f	.	1a
=104	=104	=104	=104	=104	=104
0r	1c	0r	1e	0g	1cc
.	1B	.	1d	.	[1dd
=105	=105	=105	=105	=105	=105
0r	0A	0r	0e	0a	2dd]
.	.	.	.	.	4cc
.	.	.	.	.	4b
.	.	.	.	.	1cc#
=106	=106	=106	=106	=106	=106
0G	1G	0g	2r	0b	2dd
.	.	.	2d	.	1g
.	1d	.	2B	.	.
.	.	.	2G	.	2b
=107	=107	=107	=107	=107	=107
1A	0c	1f	4c	0cc	2a
.	.	.	4A	.	.
.	.	.	2a	.	2cc
[1c	.	1e	[1g	.	2.ee
.	.	.	.	.	4ff
=108	=108	=108	=108	=108	=108
1c]	0G	0d	0g]	0dd	0gg
1B	.	.	.	.	.
=109	=109	=109	=109	=109	=109
1c	2.g	2.c	1r	0ee	1gg
.	4f	4d	.	.	.
1C	2e	4e	[1cc	.	1r
.	.	4f	.	.	.
.	2c	[2g	.	.	.
=110	=110	=110	=110	=110	=110
1G	1d	2g]	1cc]	0dd	0gg
.	.	4f	.	.	.
.	.	4e	.	.	.
1r	1G	1d	1b	.	.
=111	=111	=111	=111	=111	=111
1F	2.A	2r	1a	0cc	1ff
.	.	2c	.	.	.
.	4B	.	.	.	.
1C	1c	2.e	[1g	.	1ee
.	.	4f	.	.	.
=112	=112	=112	=112	=112	=112
0G	2.d	1g	2g]	0b	0dd
.	.	.	4f	.	.
.	4c	.	4e	.	.
.	2B	[1g	1d	.	.
.	2G	.	.	.	.
=113	=113	=113	=113	=113	=113
0D	1A	2g]	2r	0a	1dd
.	.	4f	2.d	.	.
.	.	4e	.	.	.
.	2A	1f#	.	.	[1dd
.	.	.	4c	.	.
.	[2d	.	2A	.	.
=114	=114	=114	=114	=114	=114
0G	2d]	1g	2B	0g	2dd]
.	1c	.	2c	.	2ee
.	.	1r	1d	.	1dd
.	2B	.	.	.	.
*-	*-	*-	*-	*-	*-
!!!CDT: 1525/^1526/-1594/2/2
!!!OCY: Italia
!!!AGN: Mass (Tenor)
!!!AST: renaissance, vocal
!!!ASW: Antiphon
!!!PWK: Masses, Book 3
!!!RNB: Cadence finals: G
!!!YOR: Le Opere Complete, v. 6, p. 216
!!!YOO: Rome, Italy: Fratelli Scalera
!!!END: 1992//
!!!EED: John Miller
!!!YEC: Copyright 2000, John Miller
!!!YEN: United States of America
!!!YEM: Rights to all derivative electronic formats reserved.
!!!YEM: Refer to licensing agreement for further details.
!!!YEM: This file must be accompanied by the licensing agreement.
!!!YEM: A copy of the licensing agreement may be found at http://www.music-cog.ohio-state.edu/HumdrumDatabases/Palestrina/license.txt
!!!EMD: converted to Humdrum by Bret Aarden
